X:1
T:Jingle Bells
T:Jingle Bells
%%score [ 1 2 3 4 ]
L:1/8
M:2/4
K:G
V:1 treble nm="Soprano" snm="S."
V:2 treble nm="Alto" snm="A."
V:3 treble-8 nm="Tenor" snm="T."
V:4 bass nm="Bass" snm="B."
V:1
 B B B2 | B B B2 | B d G3/2 A/ | B2 z2 | c c c3/2 c/ | c B B B/ B/ | B A A B | A3 z | B B B2 | %9
 B B B2 | B d G3/2 A/ | B2 z2 | c c c c | c B B B/ B/ | d d c A | G3 z | z2 z D | D B A G | D3 D | %19
 E c B A | E4 | z A B c | d d B A | d4 | z2 z D | D B A G | D4 | z c B A | E c B A | d d d d | %30
 e d c A | G2 d2!D.C.! |] %32
V:2
 G G G2 | G G G2 | G F D3/2 F/ | G2 z2 | G G G3/2 G/ | G G G G/ G/ | G G G G | F3 z | G G G2 | %9
 G G G2 | G F D3/2 F/ | G2 z2 | G G G G | G G G G/ G/ | F F F F | G3 D | D B A G | D3 D/ D/ | %18
 D B A G | E3 E | E c B A | F3 F | F F F F | G3 G | D B A G | D3 D | D B A G | E3 E | C E G E | %29
 G G G G | F F F F | G2 F2 |] %32
V:3
 d d d2 | d d d2 | d A B3/2 c/ | B2 z2 | e e e3/2 e/ | d d d d/ d/ | e e e ^c | d3 z | d d d2 | %9
 d d d2 | d A B3/2 c/ | B2 z2 | e e e e | d d d d/ d/ | c c c c | B3 B | B d d B | B3 B/ B/ | %18
 B d d d | G3 G | G G G G | A3 A | d d d d | d3 d | B d d B | B3 B | B d d d | G3 G | G G c c | %29
 B B B B | c c c c | B2 A2 |] %32
V:4
 G, F, (E,D,) | G, F, (E,D,) | G, F, E,3/2 D,/ | G, F, (E,D,) | C, D, E,3/2 F,/ | %5
 G, F, E, D,/ D,/ | ^C, A,, B,, C, | D, D, E, F, | G, F, (E,D,) | G, F, (E,D,) | G, F, E,3/2 D,/ | %11
 G, F, (E,D,) | C, D, E, F, | G, F, E, D,/ D,/ | D, D, E, F, | G,3 G, | G, G, F, G, | G,3 G,/ G,/ | %18
 G, G, F, B,, | C,3 C, | C, C, E, E, | D,3 D, | D D, E, F, | G, F, F, G, | D, D, E, F, | G,3 G, | %26
 G, G, F, B,, | C,3 C, | C, D, E, F, | G, F, E, D, | D, D, E, F, | G,2 D,2 |] %32

